public/img/icons/like.svg

<svg xmlns="http://www.w3.org/2000/svg" width="400" height="400.56" xmlns:v="https://vecta.io/nano"><path d="M246.35 31.389c-2.741.688-6.568 2.65-6.85 3.51-.122.371-.596 11.027-1.054 23.68-.929 25.668-.808 24.961-5.857 34.418-5.736 10.746-9.675 15.373-31.962 37.535-10.38 10.322-20.31 20.658-22.065 22.969l-10.625 14.371c-28.171 38.541-40.032 46.203-71.859 46.421-28.455.195-34.146 5.383-40.878 37.271-7.768 36.789-4.629 63.593 9.64 82.33 12.075 15.855 23.433 18.771 62.331 16.001 17.291-1.232 35.163-.969 49.86.733 76.507 8.857 121.8.008 135.005-26.376 2.983-5.959 3.039-6.527 1.801-18.173l-1.081-10.168 6.561-6.639c9.232-9.343 10.868-15.589 9.066-34.62l-.581-6.132 3.553-3.766c10.201-10.814 12.119-27.83 4.424-39.264-1.062-1.578-1.731-3.039-1.488-3.248s1.955-1.524 3.804-2.922c10.97-8.297 14.546-16.981 11.807-28.678-4.616-19.708-20.703-23.85-71.191-18.33l-19.458 2.004-4.332.351.256-1.563c.141-.86.538-4.268.884-7.575.581-5.565.909-6.647 4.423-14.592 20.031-45.283 21.411-75.439 4.236-92.562-6.526-6.505-11.998-8.587-18.37-6.986" fill-rule="evenodd"/></svg>

<svg id="svg" xmlns="http://www.w3.org/2000/svg" xmlns:xlink="http://www.w3.org/1999/xlink" width="400" height="400.5602240896358" viewBox="0, 0, 400,400.5602240896358"><g id="svgg"><path id="path0" d="M246.350 31.389 C 243.609 32.077,239.782 34.039,239.500 34.899 C 239.378 35.270,238.904 45.926,238.446 58.579 C 237.517 84.247,237.638 83.540,232.589 92.997 C 226.853 103.743,222.914 108.370,200.627 130.532 C 190.247 140.854,180.317 151.190,178.562 153.501 C 176.806 155.812,172.025 162.279,167.937 167.872 C 139.766 206.413,127.905 214.075,96.078 214.293 C 67.623 214.488,61.932 219.676,55.200 251.564 C 47.432 288.353,50.571 315.157,64.840 333.894 C 76.915 349.749,88.273 352.665,127.171 349.895 C 144.462 348.663,162.334 348.926,177.031 350.628 C 253.538 359.485,298.831 350.636,312.036 324.252 C 315.019 318.293,315.075 317.725,313.837 306.079 L 312.756 295.911 319.317 289.272 C 328.549 279.929,330.185 273.683,328.383 254.652 L 327.802 248.520 331.355 244.754 C 341.556 233.940,343.474 216.924,335.779 205.490 C 334.717 203.912,334.048 202.451,334.291 202.242 C 334.535 202.033,336.246 200.718,338.095 199.320 C 349.065 191.023,352.641 182.339,349.902 170.642 C 345.286 150.934,329.199 146.792,278.711 152.312 C 270.392 153.221,261.636 154.123,259.253 154.316 L 254.921 154.667 255.177 153.104 C 255.318 152.244,255.715 148.836,256.061 145.529 C 256.642 139.964,256.970 138.882,260.484 130.937 C 280.515 85.654,281.895 55.498,264.720 38.375 C 258.194 31.870,252.722 29.788,246.350 31.389 " stroke="none" fill="#000000" fill-rule="evenodd"></path></g></svg>
